X:1
T:Title
%%score { ( 1 3 ) | 2 }
L:1/8
M:4/4
K:Bb
V:1 treble nm="Grand Piano"
V:3 treble 
V:2 bass 
V:1
 z4 z2[Q:1/4=100] [B,D][CE] | [DF][DF][DF][DF] [DF][DB][B,D][CE] | [DF]6 [DB][DB] | %3
 [EA][EA][EA][EA] [EA]cGA | [DB]6 [DB][FA] | GGG[FA] [GB][GB][FA][EG] |[M:3/4] [DF]6 | %7
[M:1/4] [DF][DF] |[M:4/4] [C=E][CF][EG][FA] [GB]GAB | c6 z2 | [Fd][DF][_D=E][=DF] [Dc]2 [DB]2 | %11
 [EA]8[K:bass] | eG^FG A2 G2 | [DF]6[K:bass] z2 | [DF][DF][DF][DF] [DB][DB][EA][FB] | [Gc]2 G4 GG | %16
 FFBc dBc[EFA] |[M:3/4] [DFB]6 |] %18
V:2
 z4 z2 [B,,F,][B,,F,] | [B,,B,][B,,B,][B,,B,][B,,B,] [B,,B,][B,,F,][B,,F,][B,,F,] | %2
 [B,,B,]6 [B,,F,][B,,F,] | [C,F,][C,F,][C,F,][C,F,] [C,F,][F,A,E][F,A,E][F,CE] | %4
 [B,,B,]6 [B,,B,][D,B,] | [E,B,E][E,B,E][E,B,E][E,B,] [E,E][E,E][E,B,][E,B,] |[M:3/4] [B,,B,]6 | %7
[M:1/4] [B,,B,][B,,B,] |[M:4/4] [C,G,][C,A,][C,C][C,C] [C,C][K:treble][B,C=E][A,CF][K:bass][G,CE] | %9
 [F,A,E]6 z2 | [B,,B,][B,,B,][B,,B,][B,,B,] [B,,F,]2 [B,,F,]2 | [C,F,]2 C,2 F,4 | %12
 [F,A,E][F,CE][F,=B,E][F,CE] [F,CE]2 [F,A,E]2 | [B,,B,]2 D,F, B,2 B,,B,, | %14
 [B,,B,][B,,B,][B,,B,][B,,B,] [B,,F,][B,,F,][C,F,][D,B,] | [E,B,]2 [E,B,E]4 [=E,B,_D][E,B,D] | %16
 [F,B,D][F,B,D][F,B,D][F,A,E] [F,B,F][F,DF][F,EF]F,, |[M:3/4] B,,6 |] %18
V:3
 x8 | x8 | x8 | x8 | x8 | x8 |[M:3/4] x6 |[M:1/4] x2 |[M:4/4] x8 | x8 | x8 | z2[K:bass] F,2 C4 | %12
 x8 | z2 B,2 z2[K:bass] [F,B,D][F,CE] | x8 | x8 | x8 |[M:3/4] x6 |] %18

